icon-themes/sifr_svg/cmd/lc_freezepanesfirstrow.svg

<svg viewBox="0 0 24 24" xmlns="http://www.w3.org/2000/svg"><g fill="#555753"><path d="m4 4v3h16v-3z" opacity=".35"/><path d="m2 2v20h20v-20zm2 2h5v3h-5zm6 0h4v3h-4zm5 0h5v3h-5zm-11 5h5v3h-5zm6 0h4v3h-4zm5 0h5v3h-5zm-11 4h5v3h-5zm6 0h4v3h-4zm5 0h5v3h-5zm-11 4h5v3h-5zm6 0h4v3h-4zm5 0h5v3h-5z"/></g></svg>

<svg viewBox="0 0 24 24" xmlns="http://www.w3.org/2000/svg">
  <path
     style="opacity:0.35;fill:#555753"
     d="M 4 4 L 4 7 L 20 7 L 20 4 L 4 4 z "
     />
  <path
     style="fill:#555753"
     d="M 2,2 V 22 H 22 V 2 Z M 4,4 H 9 V 7 H 4 Z m 6,0 h 4 v 3 h -4 z m 5,0 h 5 V 7 H 15 Z M 4,9 h 5 v 3 H 4 Z m 6,0 h 4 v 3 h -4 z m 5,0 h 5 v 3 H 15 Z M 4,13 h 5 v 3 H 4 Z m 6,0 h 4 v 3 h -4 z m 5,0 h 5 v 3 H 15 Z M 4,17 h 5 v 3 H 4 Z m 6,0 h 4 v 3 h -4 z m 5,0 h 5 v 3 h -5 z"
     />
</svg>
